X: 30101
M: 3/8
L: 1/16
K: G
V: 1 staves=2
d'b |\
gdBG d'b | gdBG d'b | c'afdef | g4 bg |\
eBGE bg | eBGE bg | fa^dfBd | e2E2 :|
|: d2 |\
d2g2g2 | B4B2 | B2e2e2 | A4F2 |\
|: bd' |\
c'afd bd' | c'afd bd' | c'afdef | g4 gb |\
af^dB gb | af^dB gb | af^dB^cd | e4 :|
|: d2 |\
d2c2c2 | a2c2c2 | c2B2c2 | g2B2B2 |\
^GABcde | fgabc'a | gfedef | g4 :|
V: 2
z2 |\
E2e2z2 | E2e2z2 | B2B2A2 | G2E2 :|
|: B2 |\
z6 | G2c2B2 | BAG2F2 | G4 :|
|: z2 |\
|: B2 |\
E2z2 Bc | ABcdec | d4c2 | B4 :|


